src/assets/img/visa.svg

<svg width="72" height="24" viewBox="0 0 72 24" fill="none" xmlns="http://www.w3.org/2000/svg">
<path d="M30.8266 22.6849H25.0242L28.6506 0.398231H34.4536L30.8266 22.6849ZM20.1429 0.398231L14.6112 15.7272L13.9566 12.4263L13.9572 12.4274L12.0048 2.40489C12.0048 2.40489 11.7687 0.398231 9.25233 0.398231H0.107308L0 0.775597C0 0.775597 2.79656 1.35744 6.06945 3.32297L11.1105 22.6855H17.1561L26.3876 0.398231H20.1429ZM65.7815 22.6849H71.1094L66.4641 0.397635H61.7998C59.6459 0.397635 59.1213 2.05852 59.1213 2.05852L50.4675 22.6849H56.5161L57.7257 19.3744H65.1019L65.7815 22.6849ZM59.3967 14.8013L62.4454 6.46113L64.1606 14.8013H59.3967ZM50.9212 5.75766L51.7492 0.971731C51.7492 0.971731 49.1941 0 46.5305 0C43.6511 0 36.8132 1.25848 36.8132 7.37801C36.8132 13.1357 44.8386 13.2072 44.8386 16.2315C44.8386 19.2558 37.64 18.7139 35.2644 16.8068L34.4017 21.8109C34.4017 21.8109 36.9926 23.0694 40.9511 23.0694C44.9107 23.0694 50.8842 21.0192 50.8842 15.4392C50.8842 9.6446 42.7866 9.10508 42.7866 6.58573C42.7872 4.06578 48.4382 4.38949 50.9212 5.75766Z" fill="#2566AF"/>
<path d="M13.9572 12.4267L12.0048 2.40412C12.0048 2.40412 11.7687 0.397461 9.25233 0.397461H0.107308L0 0.774827C0 0.774827 4.39545 1.68575 8.61146 5.09874C12.6427 8.3609 13.9572 12.4267 13.9572 12.4267Z" fill="#E6A540"/>
</svg>

<svg width="72" height="24" fill="none" xmlns="http://www.w3.org/2000/svg"><path d="M30.827 22.685h-5.803L28.651.398h5.803l-3.627 22.287ZM20.143.398l-5.532 15.33-.654-3.302v.001L12.005 2.405S11.769.398 9.252.398H.107L0 .776s2.797.581 6.07 2.547l5.04 19.363h6.046L26.388.398h-6.245ZM65.78 22.685h5.328L66.464.398H61.8c-2.154 0-2.679 1.66-2.679 1.66l-8.654 20.627h6.05l1.209-3.31h7.376l.68 3.31ZM59.397 14.8l3.048-8.34 1.716 8.34h-4.764ZM50.92 5.758 51.75.972S49.194 0 46.531 0c-2.88 0-9.718 1.258-9.718 7.378 0 5.758 8.026 5.83 8.026 8.854 0 3.024-7.199 2.482-9.575.575l-.862 5.004s2.59 1.258 6.55 1.258c3.959 0 9.932-2.05 9.932-7.63 0-5.794-8.097-6.334-8.097-8.853 0-2.52 5.651-2.197 8.134-.828Z" fill="#2566AF"/><path d="M13.957 12.427 12.005 2.404S11.769.397 9.252.397H.107L0 .775s4.395.91 8.611 4.324c4.032 3.262 5.346 7.328 5.346 7.328Z" fill="#E6A540"/></svg>
